dist/svg/door-man-fill.svg

<svg xmlns="http://www.w3.org/2000/svg" viewBox="0 0 24 24"><path d="M11.478 2.28c-.896.084-2.233.434-3.454.903-.47.181-.672.347-.744.615-.044.164-.026.287.216 1.505l.264 1.328v1.901c0 1.521.012 1.963.06 2.214A4.24 4.24 0 0 0 9.005 13c.176.176.306.32.289.32-.016 0-.877.181-1.912.402-2.124.455-2.246.495-2.617.867-.259.26-.417.557-.481.908-.029.154-.044 1.009-.043 2.42 0 2.331.014 2.52.202 2.888.113.223.529.639.752.752.403.206.253.202 6.805.202s6.402.004 6.805-.202c.223-.113.639-.529.752-.752.188-.368.202-.557.202-2.888.001-1.388-.015-2.267-.042-2.415a1.7 1.7 0 0 0-.483-.913c-.369-.372-.491-.412-2.616-.867a162 162 0 0 0-1.912-.402c-.017 0 .113-.144.289-.32a4.24 4.24 0 0 0 1.185-2.254c.048-.251.06-.693.06-2.214V6.631l.264-1.328c.242-1.218.26-1.341.216-1.505-.097-.358-.346-.501-1.603-.918-1.462-.484-2.698-.688-3.639-.6m3.002 4.996c0 .087-.462.447-.767.597-.578.286-.858.342-1.713.342s-1.135-.056-1.713-.342c-.305-.15-.767-.51-.767-.597 0-.021 1.038-.036 2.48-.036s2.48.015 2.48.036M9.64 9.227c.739.364 1.413.509 2.36.509s1.621-.145 2.36-.509c.187-.091.353-.173.37-.18s.03.199.03.46c-.001 1.218-.199 1.802-.824 2.428a2.7 2.7 0 0 1-1.116.693c-.277.091-.387.105-.82.105s-.543-.014-.82-.105a2.7 2.7 0 0 1-1.116-.693c-.625-.626-.823-1.21-.824-2.428 0-.261.014-.468.03-.46.017.007.183.089.37.18m2.72 6.114a.78.78 0 0 1 .338.388c.275.658-.513 1.297-1.106.897-.545-.367-.405-1.192.228-1.35a.95.95 0 0 1 .54.065m-.093 2.462c.249.094.49.436.492.699.001.185-.177.504-.345.618-.121.082-.196.1-.414.1-.335 0-.516-.109-.661-.398-.118-.235-.123-.384-.023-.606.171-.377.579-.554.951-.413"/></svg>

<svg fill="none" xmlns="http://www.w3.org/2000/svg" viewBox="0 0 24 24"><path d="M11.478 2.280 C 10.582 2.364,9.245 2.714,8.024 3.183 C 7.554 3.364,7.352 3.530,7.280 3.798 C 7.236 3.962,7.254 4.085,7.496 5.303 L 7.760 6.631 7.760 8.532 C 7.760 10.053,7.772 10.495,7.820 10.746 C 7.989 11.628,8.383 12.378,9.005 13.000 C 9.181 13.176,9.311 13.320,9.294 13.320 C 9.278 13.320,8.417 13.501,7.382 13.722 C 5.258 14.177,5.136 14.217,4.765 14.589 C 4.506 14.849,4.348 15.146,4.284 15.497 C 4.255 15.651,4.240 16.506,4.241 17.917 C 4.241 20.248,4.255 20.437,4.443 20.805 C 4.556 21.028,4.972 21.444,5.195 21.557 C 5.598 21.763,5.448 21.759,12.000 21.759 C 18.552 21.759,18.402 21.763,18.805 21.557 C 19.028 21.444,19.444 21.028,19.557 20.805 C 19.745 20.437,19.759 20.248,19.759 17.917 C 19.760 16.529,19.744 15.650,19.717 15.502 C 19.653 15.154,19.491 14.848,19.234 14.589 C 18.865 14.217,18.743 14.177,16.618 13.722 C 15.583 13.501,14.722 13.320,14.706 13.320 C 14.689 13.320,14.819 13.176,14.995 13.000 C 15.617 12.378,16.011 11.628,16.180 10.746 C 16.228 10.495,16.240 10.053,16.240 8.532 L 16.240 6.631 16.504 5.303 C 16.746 4.085,16.764 3.962,16.720 3.798 C 16.623 3.440,16.374 3.297,15.117 2.880 C 13.655 2.396,12.419 2.192,11.478 2.280 M14.480 7.276 C 14.480 7.363,14.018 7.723,13.713 7.873 C 13.135 8.159,12.855 8.215,12.000 8.215 C 11.145 8.215,10.865 8.159,10.287 7.873 C 9.982 7.723,9.520 7.363,9.520 7.276 C 9.520 7.255,10.558 7.240,12.000 7.240 C 13.442 7.240,14.480 7.255,14.480 7.276 M9.640 9.227 C 10.379 9.591,11.053 9.736,12.000 9.736 C 12.947 9.736,13.621 9.591,14.360 9.227 C 14.547 9.136,14.713 9.054,14.730 9.047 C 14.747 9.039,14.760 9.246,14.760 9.507 C 14.759 10.725,14.561 11.309,13.936 11.935 C 13.601 12.271,13.261 12.482,12.820 12.628 C 12.543 12.719,12.433 12.733,12.000 12.733 C 11.567 12.733,11.457 12.719,11.180 12.628 C 10.739 12.482,10.399 12.271,10.064 11.935 C 9.439 11.309,9.241 10.725,9.240 9.507 C 9.240 9.246,9.254 9.039,9.270 9.047 C 9.287 9.054,9.453 9.136,9.640 9.227 M12.360 15.341 C 12.501 15.414,12.626 15.557,12.698 15.729 C 12.973 16.387,12.185 17.026,11.592 16.626 C 11.047 16.259,11.187 15.434,11.820 15.276 C 11.966 15.240,12.224 15.271,12.360 15.341 M12.267 17.803 C 12.516 17.897,12.757 18.239,12.759 18.502 C 12.760 18.687,12.582 19.006,12.414 19.120 C 12.293 19.202,12.218 19.220,12.000 19.220 C 11.665 19.220,11.484 19.111,11.339 18.822 C 11.221 18.587,11.216 18.438,11.316 18.216 C 11.487 17.839,11.895 17.662,12.267 17.803 " stroke="none" fill-rule="evenodd"/></svg>
